assets/report/china-popculture/correct.svg

<svg fill="none" height="19" viewBox="0 0 19 19" width="19" xmlns="http://www.w3.org/2000/svg"><path d="m9.38867 18.4697c4.82523 0 8.81543-3.9902 8.81543-8.8154 0-4.83399-3.9902-8.815433-8.82422-8.815433-4.82519 0-8.806638 3.981443-8.806638 8.815433 0 4.8252 3.990238 8.8154 8.815428 8.8154zm-.96679-4.5615c-.23731 0-.41309-.0967-.59766-.3252l-2.38184-2.8564c-.10547-.1407-.16699-.2901-.16699-.4483 0-.3076.23731-.55369.54492-.55369.19336 0 .34278.07031.50977.28129l2.05664 2.54 4.04298-6.39844c.1318-.20215.3076-.31641.4922-.31641.29 0 .5625.21094.5625.52735 0 .14062-.0791.29883-.1582.43066l-4.35061 6.79394c-.14063.2197-.3252.3252-.55371.3252z" fill="#fff"/></svg>

<svg width="19" height="19" viewBox="0 0 19 19" fill="none" xmlns="http://www.w3.org/2000/svg">
<path d="M9.38867 18.4697C14.2139 18.4697 18.2041 14.4795 18.2041 9.6543C18.2041 4.82031 14.2139 0.838867 9.37988 0.838867C4.55469 0.838867 0.573242 4.82031 0.573242 9.6543C0.573242 14.4795 4.56348 18.4697 9.38867 18.4697ZM8.42188 13.9082C8.18457 13.9082 8.00879 13.8115 7.82422 13.583L5.44238 10.7266C5.33691 10.5859 5.27539 10.4365 5.27539 10.2783C5.27539 9.9707 5.5127 9.72461 5.82031 9.72461C6.01367 9.72461 6.16309 9.79492 6.33008 10.0059L8.38672 12.5459L12.4297 6.14746C12.5615 5.94531 12.7373 5.83105 12.9219 5.83105C13.2119 5.83105 13.4844 6.04199 13.4844 6.3584C13.4844 6.49902 13.4053 6.65723 13.3262 6.78906L8.97559 13.583C8.83496 13.8027 8.65039 13.9082 8.42188 13.9082Z" fill="white"/>
</svg>
